assets/img/base/adv3.svg

<svg width="71" height="71" viewBox="0 0 71 71" fill="none" xmlns="http://www.w3.org/2000/svg">
<g clip-path="url(#clip0_170_2)">
<path d="M35.5 71C55.1061 71 71 55.1061 71 35.5C71 15.8939 55.1061 0 35.5 0C15.8939 0 0 15.8939 0 35.5C0 55.1061 15.8939 71 35.5 71Z" fill="#02361E"/>
<path fill-rule="evenodd" clip-rule="evenodd" d="M55.2965 51.287H43.1847C42.6 51.287 42.0988 50.7859 42.0988 50.2012V44.187C42.0988 43.5188 42.6 43.1012 43.1847 43.1012H55.2965C55.9647 43.1012 56.4659 43.5188 56.4659 44.187V50.2012C56.4659 50.7859 55.9647 51.287 55.2965 51.287ZM43.1847 44.1035C43.1012 44.1035 43.1012 44.1035 43.1012 44.187V50.2012C43.1012 50.2012 43.1012 50.2847 43.1847 50.2847H55.2965C55.38 50.2847 55.38 50.2012 55.38 50.2012V44.187C55.38 44.1035 55.38 44.1035 55.2965 44.1035H43.1847Z" fill="white"/>
<path fill-rule="evenodd" clip-rule="evenodd" d="M54.0435 44.1871C53.7094 44.1871 53.5423 44.02 53.5423 43.6859V41.6812C53.5423 41.6812 53.5423 41.5976 53.5423 41.5141L54.0435 40.5118C54.3776 39.76 54.7118 39.0082 55.0459 38.34V38.2565C55.7141 36.7529 56.2153 35.5 55.4635 34.1635L48.1965 21.5506C47.6953 20.6318 46.6094 20.5482 45.8576 20.9659C45.1059 21.3835 45.0223 22.2188 45.5235 23.0541L49.4494 29.9035V29.9871C49.7 30.2376 49.7835 30.6553 49.7835 30.9894V36.1682C49.7835 36.4188 49.5329 36.6694 49.2823 36.6694C49.0318 36.6694 48.7812 36.4188 48.7812 36.1682V30.9894C48.7812 30.4882 48.3635 30.1541 47.8623 30.1541C47.3612 30.1541 46.9435 30.4882 46.9435 30.9894V36.7529C46.9435 36.92 46.9435 37.0871 46.7765 37.1706C44.5212 39.0918 45.2729 43.1012 45.3565 43.4353C45.3565 43.4353 45.44 43.5188 45.44 43.6024C45.44 43.8529 45.2729 44.02 45.0223 44.1035C44.7718 44.1035 44.5212 44.02 44.4376 43.7694C44.2706 43.5188 43.3518 38.9247 45.9412 36.5859V30.9894C45.9412 29.9871 46.7765 29.1518 47.7788 29.0682L44.6047 23.5553C43.6859 21.9682 44.3541 20.7153 45.3565 20.1306C46.5259 19.4624 48.28 19.6294 49.1153 21.0494L56.3823 33.6624C57.3847 35.4165 56.7165 37.0035 56.0482 38.5906L55.9647 38.6741C55.7141 39.4259 55.2965 40.1776 54.9623 40.9294C54.7953 41.2635 54.7118 41.5141 54.5447 41.8482V43.6859C54.5447 44.02 54.2941 44.1871 54.0435 44.1871Z" fill="white"/>
<path fill-rule="evenodd" clip-rule="evenodd" d="M49.2823 48.7812C48.3635 48.7812 47.6118 48.0294 47.6118 47.1941C47.6118 46.2753 48.3635 45.5235 49.2823 45.5235C50.1176 45.5235 50.8694 46.2753 50.8694 47.1941C50.8694 48.0294 50.1176 48.7812 49.2823 48.7812ZM49.2823 46.5259C48.9482 46.5259 48.6141 46.86 48.6141 47.1941C48.6141 47.5282 48.9482 47.7788 49.2823 47.7788C49.6165 47.7788 49.867 47.5282 49.867 47.1941C49.867 46.86 49.6165 46.5259 49.2823 46.5259Z" fill="white"/>
<path fill-rule="evenodd" clip-rule="evenodd" d="M27.8153 51.287H15.7035C15.0353 51.287 14.5341 50.7859 14.5341 50.2012V44.187C14.5341 43.5188 15.0353 43.1012 15.7035 43.1012H27.8153C28.4 43.1012 28.9012 43.5188 28.9012 44.187V50.2012C28.9012 50.7859 28.4 51.287 27.8153 51.287ZM15.7035 44.1035C15.62 44.1035 15.62 44.1035 15.62 44.187V50.2012C15.62 50.2012 15.62 50.2847 15.7035 50.2847H27.8153C27.8988 50.2847 27.8988 50.2012 27.8988 50.2012V44.187C27.8988 44.1035 27.8988 44.1035 27.8153 44.1035H15.7035Z" fill="white"/>
<path fill-rule="evenodd" clip-rule="evenodd" d="M16.9565 44.1871C16.7059 44.1871 16.4553 44.02 16.4553 43.6859V41.8482C16.2882 41.5141 16.2047 41.2635 16.0376 40.9294C15.7035 40.1776 15.2859 39.4259 15.0353 38.6741L14.9518 38.5906C14.2835 37.0035 13.6153 35.4165 14.6176 33.6624L21.8847 21.0494C22.72 19.6294 24.4741 19.4624 25.6435 20.1306C26.6459 20.7153 27.3141 21.9682 26.3953 23.5553L23.2212 29.0682C24.2235 29.1518 25.0588 29.9871 25.0588 30.9894V36.5859C27.6482 38.9247 26.7294 43.5188 26.5624 43.7694C26.4788 44.02 26.2282 44.1035 25.9776 44.1035C25.7271 44.02 25.56 43.8529 25.56 43.6024C25.56 43.5188 25.6435 43.4353 25.6435 43.4353C25.7271 43.1012 26.4788 39.0918 24.2235 37.1706C24.0565 37.0871 24.0565 36.92 24.0565 36.7529V30.9894C24.0565 30.4882 23.6388 30.1541 23.1376 30.1541C22.6365 30.1541 22.2188 30.4882 22.2188 30.9894V36.1682C22.2188 36.4188 21.9682 36.6694 21.7176 36.6694C21.4671 36.6694 21.2165 36.4188 21.2165 36.1682V30.9894C21.2165 30.6553 21.3 30.2376 21.5506 29.9871C21.5506 29.9871 21.5506 29.9871 21.5506 29.9035L25.4765 23.0541C25.9776 22.2188 25.8941 21.3835 25.1424 20.9659C24.3906 20.5482 23.3047 20.6318 22.8035 21.5506L15.5365 34.1635C14.7847 35.5 15.2859 36.7529 15.9541 38.2565V38.34C16.2882 39.0082 16.6224 39.76 16.9565 40.5118L17.4576 41.5141V41.6812V43.6859C17.4576 44.02 17.2906 44.1871 16.9565 44.1871Z" fill="white"/>
<path fill-rule="evenodd" clip-rule="evenodd" d="M21.7176 48.7812C20.8823 48.7812 20.1306 48.0294 20.1306 47.1941C20.1306 46.2753 20.8823 45.5235 21.7176 45.5235C22.6365 45.5235 23.3882 46.2753 23.3882 47.1941C23.3882 48.0294 22.6365 48.7812 21.7176 48.7812ZM21.7176 46.5259C21.3835 46.5259 21.1329 46.86 21.1329 47.1941C21.1329 47.5282 21.3835 47.7788 21.7176 47.7788C22.0518 47.7788 22.3859 47.5282 22.3859 47.1941C22.3859 46.86 22.0518 46.5259 21.7176 46.5259Z" fill="white"/>
<path fill-rule="evenodd" clip-rule="evenodd" d="M35.5 35.5C35.1659 35.5 34.8318 35.4165 34.5812 35.2494C34.2471 35.333 33.9129 35.333 33.5788 35.2494C33.2447 35.1659 32.9106 34.9988 32.66 34.7483C32.3259 34.7483 31.9918 34.6647 31.7412 34.4977C31.4071 34.3306 31.24 34.08 31.0729 33.8294C30.7388 33.7459 30.4047 33.5788 30.1541 33.3282C29.9035 33.0777 29.7365 32.7435 29.6529 32.4094C29.4024 32.2424 29.1518 32.0753 28.9847 31.7412C28.8177 31.4906 28.7341 31.1565 28.7341 30.8224C28.4835 30.5718 28.3165 30.2377 28.2329 29.9035C28.1494 29.5694 28.1494 29.2353 28.2329 28.9012C28.0659 28.6506 27.9824 28.3165 27.9824 27.9824C27.9824 27.6483 28.0659 27.3141 28.2329 27.0635C28.1494 26.7294 28.1494 26.3953 28.2329 26.0612C28.3165 25.7271 28.4835 25.393 28.7341 25.1424C28.7341 24.8083 28.8177 24.4741 28.9847 24.2235C29.1518 23.8894 29.4024 23.7224 29.6529 23.5553C29.7365 23.2212 29.9035 22.8871 30.1541 22.6365C30.4047 22.3859 30.7388 22.2188 31.0729 22.1353C31.24 21.8847 31.4071 21.6341 31.7412 21.4671C31.9918 21.3 32.3259 21.2165 32.66 21.2165C32.9106 20.9659 33.2447 20.7988 33.5788 20.7153C33.9129 20.6318 34.2471 20.6318 34.5812 20.7153C34.8318 20.5483 35.1659 20.4647 35.5 20.4647C35.8341 20.4647 36.1682 20.5483 36.4188 20.7153C36.7529 20.6318 37.0871 20.6318 37.4212 20.7153C37.7553 20.7988 38.0894 20.9659 38.34 21.2165C38.6741 21.2165 39.0082 21.3 39.2588 21.4671C39.5929 21.6341 39.76 21.8847 39.9271 22.1353C40.2612 22.2188 40.5953 22.3859 40.8459 22.6365C41.0965 22.8871 41.2635 23.2212 41.3471 23.5553C41.5977 23.7224 41.8482 23.8894 42.0153 24.2235C42.1824 24.4741 42.2659 24.8083 42.2659 25.1424C42.5165 25.393 42.6835 25.7271 42.7671 26.0612C42.8506 26.3953 42.8506 26.7294 42.7671 27.0635C42.9341 27.3141 43.0177 27.6483 43.0177 27.9824C43.0177 28.3165 42.9341 28.6506 42.7671 28.9012C42.8506 29.2353 42.8506 29.5694 42.7671 29.9035C42.6835 30.2377 42.5165 30.5718 42.2659 30.8224C42.2659 31.1565 42.1824 31.4906 42.0153 31.7412C41.8482 32.0753 41.5977 32.2424 41.3471 32.4094C41.2635 32.7435 41.0965 33.0777 40.8459 33.3282C40.5953 33.5788 40.2612 33.7459 39.9271 33.8294C39.76 34.08 39.5929 34.3306 39.2588 34.4977C39.0082 34.6647 38.6741 34.7483 38.34 34.7483C38.0894 34.9988 37.7553 35.1659 37.4212 35.2494C37.0871 35.333 36.7529 35.333 36.4188 35.2494C36.1682 35.4165 35.8341 35.5 35.5 35.5ZM34.5812 34.1635C34.7482 34.1635 34.8318 34.2471 34.9153 34.2471C35.0824 34.4141 35.3329 34.4977 35.5 34.4977C35.6671 34.4977 35.9177 34.4141 36.0847 34.2471C36.2518 34.1635 36.4188 34.1635 36.5859 34.2471C36.7529 34.3306 37.0035 34.3306 37.1706 34.2471C37.4212 34.2471 37.5882 34.08 37.6718 33.913C37.7553 33.7459 38.0059 33.6624 38.1729 33.7459C38.34 33.7459 38.5906 33.7459 38.7577 33.5788C38.9247 33.4953 39.0918 33.3282 39.1753 33.1612C39.1753 32.9941 39.3424 32.8271 39.5929 32.8271C39.76 32.8271 39.9271 32.7435 40.0941 32.5765C40.2612 32.4094 40.3447 32.2424 40.3447 32.0753C40.3447 31.8247 40.5118 31.6577 40.6788 31.6577C40.8459 31.5741 41.0129 31.4071 41.0965 31.24C41.2635 31.073 41.2635 30.8224 41.2635 30.6553C41.18 30.4883 41.2635 30.2377 41.4306 30.1541C41.5977 30.0706 41.7647 29.9035 41.7647 29.653C41.8482 29.4859 41.8482 29.2353 41.7647 29.0683C41.6812 28.9012 41.6812 28.7341 41.7647 28.5671C41.9318 28.4 42.0153 28.1494 42.0153 27.9824C42.0153 27.8153 41.9318 27.5647 41.7647 27.3977C41.6812 27.2306 41.6812 27.0635 41.7647 26.8965C41.8482 26.7294 41.8482 26.4788 41.7647 26.3118C41.7647 26.0612 41.5977 25.8941 41.4306 25.8106C41.2635 25.7271 41.18 25.4765 41.2635 25.3094C41.2635 25.1424 41.2635 24.8918 41.0965 24.7247C41.0129 24.5577 40.8459 24.3906 40.6788 24.3071C40.5118 24.3071 40.3447 24.14 40.3447 23.8894C40.3447 23.7224 40.2612 23.5553 40.0941 23.3883C39.9271 23.2212 39.76 23.1377 39.5929 23.1377C39.3424 23.1377 39.1753 22.9706 39.1753 22.8035C39.0918 22.6365 38.9247 22.4694 38.7577 22.3859C38.5906 22.2188 38.34 22.2188 38.1729 22.2188C38.0059 22.3024 37.7553 22.2188 37.6718 22.0518C37.5882 21.8847 37.4212 21.7177 37.1706 21.7177C37.0035 21.6341 36.7529 21.6341 36.5859 21.7177C36.4188 21.8012 36.2518 21.8012 36.0847 21.7177C35.9177 21.5506 35.6671 21.4671 35.5 21.4671C35.3329 21.4671 35.0824 21.5506 34.9153 21.7177C34.7482 21.8012 34.5812 21.8012 34.4141 21.7177C34.2471 21.6341 33.9965 21.6341 33.8294 21.7177C33.5788 21.7177 33.4118 21.8847 33.3282 22.0518C33.2447 22.2188 32.9941 22.3024 32.8271 22.2188C32.66 22.2188 32.4094 22.2188 32.2424 22.3859C32.0753 22.4694 31.9082 22.6365 31.8247 22.8035C31.8247 22.9706 31.6577 23.1377 31.4071 23.1377C31.24 23.1377 31.0729 23.2212 30.9059 23.3883C30.7388 23.5553 30.6553 23.7224 30.6553 23.8894C30.6553 24.14 30.4882 24.3071 30.3212 24.3071C30.1541 24.3906 29.9871 24.5577 29.9035 24.7247C29.7365 24.8918 29.7365 25.1424 29.7365 25.3094C29.82 25.4765 29.7365 25.7271 29.5694 25.8106C29.4024 25.8941 29.2353 26.0612 29.2353 26.3118C29.1518 26.4788 29.1518 26.7294 29.2353 26.8965C29.3188 27.0635 29.3188 27.2306 29.2353 27.3977C29.0682 27.5647 28.9847 27.8153 28.9847 27.9824C28.9847 28.1494 29.0682 28.4 29.2353 28.5671C29.3188 28.7341 29.3188 28.9012 29.2353 29.0683C29.1518 29.2353 29.1518 29.4859 29.2353 29.653C29.2353 29.9035 29.4024 30.0706 29.5694 30.1541C29.7365 30.2377 29.82 30.4883 29.7365 30.6553C29.7365 30.8224 29.7365 31.073 29.9035 31.24C29.9871 31.4071 30.1541 31.5741 30.3212 31.6577C30.4882 31.6577 30.6553 31.8247 30.6553 32.0753C30.6553 32.2424 30.7388 32.4094 30.9059 32.5765C31.0729 32.7435 31.24 32.8271 31.4071 32.8271C31.6577 32.8271 31.8247 32.9941 31.8247 33.1612C31.9082 33.3282 32.0753 33.4953 32.2424 33.5788C32.4094 33.7459 32.66 33.7459 32.8271 33.7459C32.9941 33.6624 33.2447 33.7459 33.3282 33.913C33.4118 34.08 33.5788 34.2471 33.8294 34.2471C33.9965 34.3306 34.2471 34.3306 34.4141 34.2471C34.4977 34.1635 34.5812 34.1635 34.5812 34.1635Z" fill="white"/>
<path fill-rule="evenodd" clip-rule="evenodd" d="M35.5 33.6624C32.4094 33.6624 29.82 31.073 29.82 27.9824C29.82 24.8918 32.4094 22.3024 35.5 22.3024C37.0035 22.3024 38.4235 22.8871 39.5094 23.973C40.5953 25.0588 41.18 26.4788 41.18 27.9824C41.18 31.073 38.5906 33.6624 35.5 33.6624ZM35.5 23.3883C32.9106 23.3883 30.9059 25.393 30.9059 27.9824C30.9059 30.5718 32.9106 32.5765 35.5 32.5765C38.0894 32.5765 40.0941 30.5718 40.0941 27.9824C40.0941 25.393 38.0894 23.3883 35.5 23.3883Z" fill="white"/>
<path fill-rule="evenodd" clip-rule="evenodd" d="M33.0777 30.9059C32.9941 30.9059 32.8271 30.8223 32.7435 30.7388C32.493 30.5718 32.493 30.2376 32.7435 29.9871L37.5047 25.2259C37.7553 24.9753 38.0894 24.9753 38.2565 25.2259C38.5071 25.3929 38.5071 25.7271 38.2565 25.9776L33.4953 30.7388C33.3283 30.8223 33.2447 30.9059 33.0777 30.9059Z" fill="white"/>
<path fill-rule="evenodd" clip-rule="evenodd" d="M34.1635 27.7318C33.4118 27.7318 32.8271 27.1471 32.8271 26.3953C32.8271 25.6435 33.4118 25.0588 34.1635 25.0588C34.9153 25.0588 35.5835 25.6435 35.5835 26.3953C35.5835 27.1471 34.9153 27.7318 34.1635 27.7318ZM34.1635 26.0612C33.9965 26.0612 33.8294 26.2282 33.8294 26.3953C33.8294 26.5624 33.9965 26.7294 34.1635 26.7294C34.4141 26.7294 34.4976 26.5624 34.4976 26.3953C34.4976 26.2282 34.4141 26.0612 34.1635 26.0612Z" fill="white"/>
<path fill-rule="evenodd" clip-rule="evenodd" d="M36.8365 30.9059C36.0847 30.9059 35.4165 30.3212 35.4165 29.5694C35.4165 28.8176 36.0847 28.2329 36.8365 28.2329C37.5882 28.2329 38.1729 28.8176 38.1729 29.5694C38.1729 30.3212 37.5882 30.9059 36.8365 30.9059ZM36.8365 29.2353C36.5859 29.2353 36.5024 29.4024 36.5024 29.5694C36.5024 29.7365 36.5859 29.9035 36.8365 29.9035C37.0035 29.9035 37.1706 29.7365 37.1706 29.5694C37.1706 29.4024 37.0035 29.2353 36.8365 29.2353Z" fill="white"/>
<path fill-rule="evenodd" clip-rule="evenodd" d="M31.5741 42.0988H31.4906C31.24 42.0153 31.0729 41.8482 31.0729 41.5976L31.24 38.9247L28.9012 40.3447C28.7341 40.5118 28.4835 40.4282 28.3165 40.2612C28.1494 40.0941 28.0659 39.8435 28.2329 39.6765L31.5741 33.8294C31.7412 33.5788 32.0753 33.4953 32.2423 33.6624C32.4094 33.7459 32.66 33.7459 32.8271 33.7459C32.9941 33.6624 33.2447 33.7459 33.3282 33.9129C33.4118 34.08 33.5788 34.2471 33.8294 34.2471C33.9965 34.3306 34.2471 34.3306 34.4141 34.2471C34.5812 34.1635 34.8318 34.1635 34.9153 34.2471C35.0823 34.4141 35.2494 34.4976 35.4165 34.4976C35.6671 34.4976 35.7506 34.5812 35.8341 34.7482C35.9176 34.9153 35.9176 35.0824 35.8341 35.2494L32.0753 41.8482C31.9918 42.0153 31.7412 42.0988 31.5741 42.0988ZM31.7412 37.4212C31.8247 37.4212 31.9082 37.5047 31.9918 37.5047C32.1588 37.5882 32.2423 37.7553 32.2423 38.0059L32.1588 39.5094L34.6647 35.3329C34.5812 35.2494 34.5812 35.2494 34.5812 35.2494C34.2471 35.3329 33.9129 35.3329 33.5788 35.2494C33.2447 35.1659 32.9106 34.9988 32.66 34.7482C32.5765 34.7482 32.4094 34.7482 32.2423 34.7482L30.1541 38.34L31.4906 37.5047C31.5741 37.5047 31.6576 37.4212 31.7412 37.4212Z" fill="white"/>
<path fill-rule="evenodd" clip-rule="evenodd" d="M39.4259 42.0988C39.2588 42.0988 39.0082 42.0153 38.9247 41.8482L35.1659 35.2494C35.0824 35.0824 35.0824 34.9153 35.1659 34.7482C35.2494 34.5812 35.4165 34.4976 35.5835 34.4976C35.7506 34.4976 35.9177 34.4141 36.0847 34.2471C36.2518 34.1635 36.4188 34.1635 36.5859 34.2471C36.7529 34.3306 37.0035 34.3306 37.1706 34.2471C37.4212 34.2471 37.5882 34.08 37.6718 33.9129C37.7553 33.7459 38.0059 33.6624 38.1729 33.7459C38.34 33.7459 38.5906 33.7459 38.7577 33.6624C39.0082 33.4953 39.2588 33.5788 39.4259 33.8294L42.7671 39.5929C42.8506 39.6765 42.8506 39.8435 42.8506 39.9271C42.8506 40.1776 42.6 40.4282 42.3494 40.4282C42.2659 40.4282 42.1824 40.4282 42.0988 40.3447L39.8435 38.9247L39.9271 41.5976C39.9271 41.8482 39.76 42.0153 39.5094 42.0988H39.4259ZM36.3353 35.3329L38.8412 39.5094L38.7577 38.0059C38.7577 37.7553 38.8412 37.5882 39.0082 37.5047C39.1753 37.4212 39.3424 37.4212 39.5094 37.5047L40.8459 38.34L38.7577 34.6647C38.5906 34.7482 38.4235 34.7482 38.34 34.7482C38.0894 34.9988 37.7553 35.1659 37.4212 35.2494C37.0871 35.3329 36.7529 35.3329 36.4188 35.2494C36.4188 35.2494 36.4188 35.2494 36.3353 35.3329Z" fill="white"/>
</g>
<defs>
<clipPath id="clip0_170_2">
<rect width="71" height="71" fill="white"/>
</clipPath>
</defs>
</svg>

<svg width="71" height="71" fill="none" xmlns="http://www.w3.org/2000/svg"><g clip-path="url(#a)"><path d="M35.5 71C55.106 71 71 55.106 71 35.5S55.106 0 35.5 0 0 15.894 0 35.5 15.894 71 35.5 71Z" fill="#02361E"/><path fill-rule="evenodd" clip-rule="evenodd" d="M55.297 51.287H43.184a1.106 1.106 0 0 1-1.086-1.086v-6.014c0-.668.501-1.086 1.086-1.086h12.111c.669 0 1.17.418 1.17 1.086v6.014c0 .585-.501 1.086-1.17 1.086Zm-12.112-7.184c-.084 0-.084 0-.084.084v6.014s0 .084.084.084h12.111c.084 0 .084-.084.084-.084v-6.014c0-.084 0-.084-.084-.084H43.186Z" fill="#fff"/><path fill-rule="evenodd" clip-rule="evenodd" d="M54.044 44.187c-.335 0-.502-.167-.502-.501V41.514l.502-1.002c.334-.752.668-1.504 1.002-2.172v-.084c.668-1.503 1.17-2.756.418-4.093l-7.267-12.612c-.502-.92-1.588-1.003-2.34-.585-.751.418-.835 1.253-.334 2.088l3.926 6.85v.083c.251.25.334.668.334 1.002v5.18c0 .25-.25.5-.5.5-.251 0-.502-.25-.502-.5v-5.18c0-.5-.417-.835-.919-.835-.5 0-.919.334-.919.835v5.764c0 .167 0 .334-.166.418-2.256 1.92-1.504 5.93-1.42 6.264 0 0 .083.084.083.167 0 .25-.167.418-.418.502-.25 0-.5-.084-.584-.335-.167-.25-1.086-4.844 1.503-7.183v-5.597c0-1.002.835-1.837 1.838-1.92l-3.174-5.514c-.92-1.587-.25-2.84.752-3.424 1.169-.669 2.923-.502 3.758.918l7.267 12.613c1.003 1.755.335 3.342-.334 4.929l-.083.083c-.25.752-.669 1.504-1.003 2.255-.167.334-.25.585-.417.92v1.837c0 .334-.25.501-.502.501ZM49.282 48.781c-.918 0-1.67-.752-1.67-1.587 0-.919.752-1.67 1.67-1.67.836 0 1.587.751 1.587 1.67 0 .835-.751 1.587-1.587 1.587Zm0-2.255c-.334 0-.668.334-.668.668s.334.585.668.585a.57.57 0 0 0 .585-.585c0-.334-.25-.668-.585-.668ZM27.815 51.287H15.703c-.668 0-1.169-.501-1.169-1.086v-6.014c0-.668.501-1.086 1.17-1.086h12.111c.585 0 1.086.418 1.086 1.086v6.014c0 .585-.501 1.086-1.086 1.086Zm-12.112-7.184c-.083 0-.083 0-.083.084v6.014s0 .084.084.084h12.111c.084 0 .084-.084.084-.084v-6.014c0-.084 0-.084-.084-.084H15.703Z" fill="#fff"/><path fill-rule="evenodd" clip-rule="evenodd" d="M16.956 44.187c-.25 0-.5-.167-.5-.501v-1.838c-.168-.334-.251-.584-.418-.919-.335-.751-.752-1.503-1.003-2.255l-.083-.083c-.668-1.587-1.337-3.175-.334-4.929l7.267-12.613c.835-1.42 2.59-1.587 3.758-.918 1.003.584 1.671 1.837.752 3.424l-3.174 5.513c1.003.084 1.838.92 1.838 1.921v5.597c2.59 2.339 1.67 6.933 1.503 7.183-.083.251-.334.334-.584.334-.25-.083-.418-.25-.418-.5 0-.084.084-.168.084-.168.083-.334.835-4.343-1.42-6.264-.168-.084-.168-.251-.168-.418v-5.764c0-.5-.417-.835-.918-.835-.502 0-.92.334-.92.835v5.18c0 .25-.25.5-.5.5s-.502-.25-.502-.5v-5.18c0-.334.084-.751.335-1.002v-.083l3.926-6.85c.5-.835.417-1.67-.335-2.088-.751-.418-1.837-.334-2.338.585l-7.267 12.613c-.752 1.336-.251 2.589.417 4.093v.083c.334.668.668 1.42 1.002 2.172l.502 1.002V43.686c0 .334-.167.501-.502.501ZM21.718 48.781c-.836 0-1.587-.752-1.587-1.587 0-.919.751-1.67 1.587-1.67.919 0 1.67.751 1.67 1.67 0 .835-.752 1.587-1.67 1.587Zm0-2.255c-.334 0-.585.334-.585.668s.25.585.585.585c.334 0 .668-.25.668-.585 0-.334-.334-.668-.668-.668ZM35.5 35.5c-.334 0-.668-.084-.919-.25a2.035 2.035 0 0 1-1.002 0 1.992 1.992 0 0 1-.919-.502c-.334 0-.668-.083-.919-.25-.334-.167-.501-.418-.668-.669a1.99 1.99 0 0 1-.919-.5 1.991 1.991 0 0 1-.501-.92c-.25-.167-.501-.334-.668-.668-.167-.25-.25-.584-.25-.919a1.992 1.992 0 0 1-.502-.918 2.037 2.037 0 0 1 0-1.003c-.167-.25-.25-.584-.25-.919 0-.334.083-.668.25-.918a2.037 2.037 0 0 1 0-1.003c.084-.334.25-.668.501-.919 0-.334.084-.668.25-.918.168-.335.418-.502.669-.669.084-.334.25-.668.501-.918.25-.251.585-.418.919-.502.167-.25.334-.5.668-.668.25-.167.585-.25.919-.25.25-.251.585-.418.919-.502a2.037 2.037 0 0 1 1.002 0c.25-.167.585-.25.919-.25.334 0 .668.083.919.25a2.037 2.037 0 0 1 1.002 0c.334.084.668.25.919.502.334 0 .668.083.919.25.334.167.501.418.668.668.334.084.668.25.919.502.25.25.418.584.501.918.25.167.501.334.668.669.167.25.25.584.25.918.252.251.419.585.502.92.084.333.084.667 0 1.002.167.25.25.584.25.918 0 .335-.083.669-.25.92.084.333.084.667 0 1.002-.084.334-.25.668-.501.918 0 .335-.084.669-.25.92-.168.333-.418.5-.669.667-.084.334-.25.669-.501.92a1.99 1.99 0 0 1-.919.5c-.167.251-.334.502-.668.669-.25.167-.585.25-.919.25-.25.25-.585.418-.919.501a2.035 2.035 0 0 1-1.002 0c-.25.167-.585.251-.919.251Zm-.919-1.337c.167 0 .25.084.334.084.167.167.418.25.585.25a.902.902 0 0 0 .585-.25.532.532 0 0 1 .5 0 .714.714 0 0 0 .586 0c.25 0 .417-.167.5-.334a.402.402 0 0 1 .502-.167c.167 0 .418 0 .585-.167.167-.084.334-.25.417-.418 0-.167.167-.334.418-.334.167 0 .334-.084.501-.25.167-.168.25-.335.25-.502 0-.25.168-.417.335-.417.167-.084.334-.25.417-.418.168-.167.168-.418.168-.585a.402.402 0 0 1 .167-.5c.167-.084.334-.252.334-.502a.714.714 0 0 0 0-.585.533.533 0 0 1 0-.5.902.902 0 0 0 .25-.586.902.902 0 0 0-.25-.584.533.533 0 0 1 0-.502.714.714 0 0 0 0-.584c0-.25-.167-.418-.334-.501-.167-.084-.251-.334-.167-.502 0-.167 0-.417-.168-.584a1.007 1.007 0 0 0-.417-.418c-.167 0-.334-.167-.334-.418 0-.167-.084-.334-.25-.5-.168-.168-.335-.251-.502-.251-.25 0-.418-.167-.418-.335a1.007 1.007 0 0 0-.417-.417c-.167-.167-.418-.167-.585-.167a.402.402 0 0 1-.501-.167c-.084-.167-.25-.334-.501-.334a.713.713 0 0 0-.585 0 .533.533 0 0 1-.501 0 .902.902 0 0 0-.585-.25.902.902 0 0 0-.585.25.533.533 0 0 1-.5 0 .713.713 0 0 0-.586 0c-.25 0-.417.167-.5.334a.402.402 0 0 1-.502.167c-.167 0-.418 0-.585.167-.167.083-.334.25-.417.418 0 .167-.167.334-.418.334-.167 0-.334.083-.501.25-.167.167-.25.334-.25.501 0 .251-.168.418-.335.418-.167.084-.334.25-.418.418-.166.167-.166.417-.166.584a.402.402 0 0 1-.168.502c-.167.083-.334.25-.334.5a.714.714 0 0 0 0 .585.533.533 0 0 1 0 .502.902.902 0 0 0-.25.584c0 .167.083.418.25.585a.533.533 0 0 1 0 .501.714.714 0 0 0 0 .585c0 .25.167.418.334.501.168.084.251.334.168.501 0 .167 0 .418.167.585.083.167.25.334.417.418.167 0 .334.167.334.417 0 .167.084.334.25.502.168.166.335.25.502.25.25 0 .418.167.418.334.083.167.25.334.417.418.167.167.418.167.585.167a.402.402 0 0 1 .501.167c.084.167.25.334.501.334a.714.714 0 0 0 .585 0c.084-.084.167-.084.167-.084Z" fill="#fff"/><path fill-rule="evenodd" clip-rule="evenodd" d="M35.5 33.662c-3.09 0-5.68-2.589-5.68-5.68 0-3.09 2.59-5.68 5.68-5.68 1.504 0 2.923.585 4.01 1.671a5.625 5.625 0 0 1 1.67 4.01c0 3.09-2.59 5.68-5.68 5.68Zm0-10.274c-2.59 0-4.594 2.005-4.594 4.594 0 2.59 2.005 4.595 4.594 4.595 2.59 0 4.594-2.005 4.594-4.595 0-2.589-2.005-4.594-4.594-4.594Z" fill="#fff"/><path fill-rule="evenodd" clip-rule="evenodd" d="M33.078 30.906c-.084 0-.25-.084-.335-.167-.25-.167-.25-.501 0-.752l4.762-4.761c.25-.25.584-.25.752 0 .25.167.25.501 0 .752l-4.762 4.76c-.167.084-.25.168-.417.168ZM34.163 27.732a1.32 1.32 0 0 1-1.336-1.337 1.32 1.32 0 0 1 1.337-1.336c.751 0 1.42.584 1.42 1.336 0 .752-.669 1.337-1.42 1.337Zm0-1.67a.36.36 0 0 0-.334.333.36.36 0 0 0 .334.334c.251 0 .335-.167.335-.334s-.084-.334-.334-.334ZM36.837 30.906c-.752 0-1.42-.585-1.42-1.337 0-.751.668-1.336 1.42-1.336a1.32 1.32 0 0 1 1.336 1.336 1.32 1.32 0 0 1-1.337 1.337Zm0-1.67c-.251 0-.335.166-.335.333 0 .168.084.335.334.335a.36.36 0 0 0 .335-.335.36.36 0 0 0-.334-.334ZM31.574 42.099h-.083c-.251-.084-.418-.25-.418-.501l.167-2.673-2.339 1.42c-.167.167-.418.083-.584-.084-.168-.167-.251-.418-.084-.585l3.341-5.847c.167-.25.501-.334.668-.167.167.084.418.084.585.084a.402.402 0 0 1 .501.167c.084.167.25.334.501.334a.714.714 0 0 0 .585 0c.167-.084.418-.084.501 0 .167.167.334.25.502.25.25 0 .334.084.417.251a.533.533 0 0 1 0 .501l-3.759 6.6c-.083.166-.334.25-.5.25Zm.167-4.678c.084 0 .167.084.25.084.168.083.251.25.251.5l-.083 1.504 2.506-4.176-.084-.084a2.037 2.037 0 0 1-1.002 0 1.99 1.99 0 0 1-.919-.5h-.418l-2.088 3.591 1.337-.835c.083 0 .167-.084.25-.084Z" fill="#fff"/><path fill-rule="evenodd" clip-rule="evenodd" d="M39.426 42.099c-.167 0-.418-.084-.501-.25l-3.76-6.6a.533.533 0 0 1 0-.5.46.46 0 0 1 .419-.251c.167 0 .334-.084.5-.25a.532.532 0 0 1 .502 0 .714.714 0 0 0 .585 0c.25 0 .417-.168.5-.335a.402.402 0 0 1 .502-.167c.167 0 .418 0 .585-.084.25-.167.5-.083.668.167l3.341 5.764c.084.083.084.25.084.334 0 .25-.251.501-.502.501-.083 0-.167 0-.25-.083l-2.255-1.42.083 2.673c0 .25-.167.417-.418.5h-.083Zm-3.09-6.766 2.505 4.176-.083-1.503c0-.25.083-.418.25-.501a.533.533 0 0 1 .501 0l1.337.835-2.088-3.675c-.167.083-.335.083-.418.083a1.99 1.99 0 0 1-.919.501 2.037 2.037 0 0 1-1.002 0l-.084.084Z" fill="#fff"/></g><defs><clipPath id="a"><path fill="#fff" d="M0 0h71v71H0z"/></clipPath></defs></svg>
